X:171
T:Where are your Gods and mighty hopes
T:Cia iad na D\'ee 'sna duile treun
R:Slow Air
S:Simon Fraser Collection
N:No.200
O:Scottish
M:C
L:1/8
Q:1/4=100
K:C
E|A>BA^G A>=GEG|E>^DE^G A2 A>c|AGGB c>Bcd|e>dc>d e2 e>g|
f>de>c d>c e2|G<E D>E G2 z2|GEDC c>d e z/c/|d>c Ad/B/ c3:|
|:E|A>B c>A c>GEG|E>^DE^G A2 A>c|AGGB c>Bcd|e>deg a2 z2|
c'>ag>e d>c e2|GEDE G2 z2|GEDC c>d e z/c/|d>c AB [E3c3]:|

